X: 488
%
U:~=!turn!
T: Mrs. Macleod of Elleanreach
C:
O:Scotland
B:Keith Norman MacDonald : "The Skye collection of the best reels & strathspeys extant" : 1887
Z:Ralph Palmer
R:Strathspey
M:C
L:1/8
K:D
A | {/c}d>gf>e {/c}d>Bc>d | A<Fd>F B>EE>c | {/c}d>ef>d (f<a)(e<f) |
{/c}(d/2c/2B/2A/2) {/c}d<F D/2D/2D D :: d | A<DA>F A<DD>d | (B/2A/2)(B/2c/2) {/c}d>F B<EE>d |
[1 A<DA>F A<DD>d | (B/2A/2)(B/2c/2) d>F D/2D/2D D :| [2 A<DA>F (D/2E/2F/2G/2) A<g | f>de>f d/2d/2d d |]


